X:202
T:Lady Cholmondley’s Waltz,3voices. JGi.202
M:3/8
L:1/8
Q:3/8=40
S:Joshua Gibbons MS,1823,Tealby,Lincs.
R:waltz
O:Tealby,Lincolnshire
Z:VMP/R.Greig, 2009
K:G
[V:1]|:B/c/|ddg|eea|(g/f/e/d/e/f/)|g/a/b B/c/|ddg|eea|(g/f/e/d/e/f/)|g2:|
[V:2]|:G/A/|BBB|ccc|(e/d/c/B/c/d/)|cB (G/A/)|BBB|ccf|e/d/c/B/c/d/|B2:|
[V:3]|:B,,/C,/|D,D,D,|A,,A,,A,,|B,,C,D,|G,,G,, B,,/C,/|D,D,D,|A,A,,A,,|B,,C,D,|G,,2:|
[V:1]|:d|c’c’a|bbg|ff/a/g/b/|aad|c’c’a|bbg|(g/f/e/d/e/f/)|g2:|
[V:2]|:d|aaf|gge|dfg|ffd|aaf|gge|dBd|B2:|
[V:3]|:G,|C,C,C,|B,,B,,B,,|D,F,G,|C,C, G,|C,C,C,|B,,B,,B,,|C,D,D,,|G,,2:|
[V:1]|:d|d2B|B2G|AA/G/A/B/|GGd|d2B|g2e|(d/e/d/c/B/A/)|G2:|
[V:2]|:B|B2G|G2G|Acd|BBB|B2B|B2c|(d/c/B/A/G/A/)|B2:|
[V:3]|:G,|G,2G,,|G,,2G,,|A,,C,D,|G, G,, D,|G,2G,,|G,,2C,|C,D,D,,|G,,2:|

